X:1
T:Songs of the Beautiful
T:Songs of the Beautiful
T:William Batchelder Bradbury
T:William Ross Wallace, 1867
T:Public Domain Courtesy of the Cyber Hymnal™
T:Public Domain Courtesy of the Cyber Hymnal™
C:William Batchelder Bradbury
Z:Public Domain
Z:Courtesy of the Cyber Hymnal™
%%score 1 2 ( 3 4 )
L:1/8
Q:1/4=103
M:3/4
K:C
V:1 treble 
V:2 treble 
V:3 bass 
V:4 bass 
V:1
 G2 | G4 c>d | e3 d c2 x6 | c4 B>A | G4 G2 | G2 c2 d2 | e4 f>e | e2 d2 ^c2 | d4 GG | G2 c2 d2 | %10
w: 1.~O|songs of the|beau- ti- ful,|songs of the|blest, Thus|breathed by the|East, on the|hearts of the|West; How your|mu- sic sweeps|
w: 2.~O|songs of the|beau- ti- ful,|songs of the|blest, By|earth- pil- grim|sung as he|hopes for his|rest; How ye|tell that all|
w: 3.~O|songs of the|beau- ti- ful,|songs of the|blest, Breathe|hope to the|spir- it, and|balm to the|blest; Still a-|round us your|
w: 4.~O|songs of the|beau- ti- ful,|songs of the|blest, We’re|but pil- grims|here, a- nd|long- ing for|rest; De- ar|fa- thers, dear|
w: 5.~O|songs of the|beau- ti- ful,|songs of the|blest, Thus|breathed by the|East, on the|hearts of the|West; In your|sweet mu- sic|
 e2 d2 e2 | f2 c2 d2 | e4 e2 | e2 ^d2 e2 | A4 d>c | B2 A2 B2 | c4 ||"^Full Chorus" [EG]2 x4 | %18
w: o’er us like|per- fume from|flowers, He,|wet with His|blood in Geth-|sem- a- ne’s|bowers.||
w: sor- rows, all|trou- bles shall|cease, On|shores where the|Lamb to His|loved ones gives|peace.||
w: par- a- dise|mu- sic shall|roll, Still|whis- per of|Christ to each|sin la- den|soul!|O|
w: mo- thers, all|house- holds that|long The|smile of the|Lord, and the|glor- i- fied’s|song!||
w: swell- ing from|Cal- va- ry’s|sod, We’ve|mer- cy and|par- a- dise|pro- mised by|God!||
 [EG]4 [FA]>[FB] | [Ec]>[FB] [Ec]4 | [Fd]4 [Ec]>[Fd] | [Ge]>[Fd] [Ec]4 | [Fc]4 [FB]>[FA] | %23
w: |||||
w: |||||
w: songs of the|beau- ti- ful,|Songs of the|beau- ti- ful,|Songs of the|
w: |||||
w: |||||
 [EG]>[CE] [EG]4 | [DB]2 [Ec]2 [Fd]2 | [Ec]4 ||"^Quartet - Light" [EG]2 x4 | [EG]4 [CF]>[CF] | %28
w: |||||
w: |||||
w: beau- ti- ful,|songs of the|blest.|O|songs of the|
w: |||||
w: |||||
 [CE]>[DF] [EG]4 | [FB]4 [FA]>[FB] | [Ec]>[FG] [EG]4 | [FA]4 [FB]>[Fc] | [Ec]>[CG] [EG]4 | %33
w: |||||
w: |||||
w: beau- ti- ful,|Songs of the|beau- ti- ful,|Songs of the|beau- ti- ful,|
w: |||||
w: |||||
 [DG]2 [EG]2 [FG]2 | [EG]4 |] %35
w: ||
w: ||
w: songs of the|blest.|
w: ||
w: ||
V:2
 z2 | z2 [G,CE]2 [G,CE]2 | z2 [G,CE]2 [G,CE]2 x6 | z2 [A,CF]2 [A,CF]2 | z2 [G,CE]2 [G,CE]2 | %5
 z2 [G,CE]2 [G,CE]2 | z2 [G,CE]2 [G,CE]2 | z2 [G,B,F]2 [G,B,F]2 | z2 [G,B,F]2 [G,B,F]2 | %9
 z G,CDB,G, | z G,CDB,G, | z A,CFCA, | z G,CD B,G, | z G,CECA, | z A,DFDA, | z B,FGFB, | %16
 z2 [G,CE]2 || x6 | x6 | x6 | x6 | x6 | x6 | x6 | x6 | x4 || x6 | x6 | x6 | x6 | x6 | x6 | x6 | %33
 x6 | x4 |] %35
V:3
 z2 | C,6 | C,6 F,6 | C,6 | C,6 | C,6 | G,6 | G,4 z2 | C,6 | C,6 | C,6 | C,6 | C,6 | F,6 | G,6 | %15
 C,4 x2 | [C,C]2 x2 || [C,C]4 [C,C]>[C,G,] | [C,G,]>[C,G,] [C,G,]4 | [G,B,]4 [G,C]>[G,B,] | %20
 [C,C]>[C,G,] [C,G,]4 | [F,A,]4 [F,B,]>[F,C] | [C,C]>[C,G,] [C,C]4 | G,2 G,2 G,2 | [C,G,]4 x2 | %25
 [C,G,]2 x2 || [C,G,]4 [C,A,]>[C,B,] | [C,C]>[C,B,] [C,C]4 | [G,,G,D]4 [G,,G,C]>[G,,G,C] | %29
 [C,E]>[C,D] [C,C]4 | [F,C]4 [F,B,]>[F,A,] | [C,G,]>[C,E,] [C,G,]4 | [G,,B,]2 [G,,C]2 [G,,D]2 | %33
 [C,C]4 x2 | x4 |] %35
V:4
 x2 | x6 | x12 | x6 | x6 | x6 | x6 | x6 | x6 | x6 | x6 | x6 | x6 | x6 | x6 | x6 | x4 || x6 | x6 | %19
 x6 | x6 | x6 | x6 | G,2 G,2 G,2 | x6 | x4 || x6 | x6 | x6 | x6 | x6 | x6 | x6 | x6 | x4 |] %35

